X: 12
T: The Red Haired Girl
M: 3/4
L: 1/8
B: "O'Neill's 12"
N: "with feeling" "setting 1" "collected by F. O'Neill"
Z: "Transcribed by Norbert Paap, norbertp@bdu.uva.nl"
K:D
(A/2G/2 FE) | D2 F-G (AB/2c/2) | d2 (ed/2c/2) A-G | (F2 DE) D-B, | C2z(A/2G/2 FE) |
D2 F-G (AB/2c/2) | d2 (ed/2c/2) A-G | F2 D-E DD | D3 ||
(F/2G/2 .A.A) | f2 d-e d-c | (d2 ed/2c/2) A-G | F2 D-E D-B, | C2z(A/2G/2 FE) |
D2 F-G (AB/2c/2) | d2 (ed/2c/2) A-G | F2 D-E DD | D3 ||


